become/img/why_icons/computer.svg

<svg width="56" height="56" viewBox="0 0 56 56" fill="none" xmlns="http://www.w3.org/2000/svg">
<path d="M34.5627 37.8438C34.2726 37.8437 33.9943 37.959 33.7892 38.1642C33.584 38.3693 33.4688 38.6476 33.4688 38.9377C33.4688 39.2279 33.584 39.5062 33.7892 39.7113C33.9943 39.9165 34.2726 40.0317 34.5627 40.0317C34.8529 40.0317 35.1312 39.9165 35.3363 39.7113C35.5415 39.5062 35.6567 39.2279 35.6567 38.9377C35.6567 38.6476 35.5415 38.3693 35.3363 38.1642C35.1312 37.959 34.8529 37.8438 34.5627 37.8438Z" fill="#198CDE" style="fill:#198CDE;fill:color(display-p3 0.0980 0.5490 0.8706);fill-opacity:1;"/>
<path d="M50.531 0H5.47C4.01984 0.00132347 2.62945 0.577913 1.60394 1.60323C0.578432 2.62856 0.00158861 4.01885 0 5.469L0 38.937C0.00132347 40.3872 0.577913 41.7776 1.60323 42.8031C2.62856 43.8286 4.01885 44.4054 5.469 44.407H22.53V49.437H21.437C19.977 49.437 18.603 50.007 17.57 51.04C17.0607 51.5465 16.6568 52.149 16.3818 52.8126C16.1069 53.4762 15.9662 54.1877 15.968 54.906C15.968 55.51 16.458 56 17.062 56H38.937C39.541 56 40.03 55.51 40.03 54.906C40.0281 53.4564 39.4515 52.0666 38.4264 51.0416C37.4014 50.0165 36.0116 49.4399 34.562 49.438H33.468V44.406H50.53C51.98 44.4047 53.3702 43.8282 54.3957 42.8031C55.4212 41.778 55.9981 40.388 56 38.938V5.468C55.9981 4.01819 55.4213 2.62831 54.3961 1.60323C53.3708 0.578157 51.9808 0.00158765 50.531 0ZM5.47 2.188H50.53C51.3998 2.18879 52.2339 2.53455 52.8491 3.14945C53.4644 3.76434 53.8107 4.59815 53.812 5.468V33.468H48.78V8.313C48.78 7.709 48.29 7.22 47.687 7.22H38.937C38.332 7.22 37.843 7.71 37.843 8.313V33.47H32.368C32.357 32.3603 32.3277 31.2508 32.28 30.142C32.089 25.687 31.652 22.703 31.426 21.391C32.5081 20.5932 33.2584 19.4248 33.5338 18.1089C33.8092 16.793 33.5903 15.4218 32.919 14.257L29.129 7.69C29.033 7.52366 28.8949 7.38552 28.7286 7.28948C28.5622 7.19344 28.3736 7.14288 28.1815 7.14288C27.9894 7.14288 27.8008 7.19344 27.6344 7.28948C27.4681 7.38552 27.33 7.52366 27.234 7.69L23.442 14.256C22.142 16.512 22.602 19.434 24.645 21.159C24.409 22.467 23.931 25.558 23.723 30.139C23.674 31.232 23.643 32.348 23.631 33.469H18.156V17.062C18.156 16.889 18.116 16.731 18.048 16.59L18.041 16.573L13.666 7.823C13.5751 7.64128 13.4355 7.48846 13.2626 7.38164C13.0898 7.27483 12.8907 7.21826 12.6875 7.21826C12.4843 7.21826 12.2852 7.27483 12.1124 7.38164C11.9395 7.48846 11.7999 7.64128 11.709 7.823L7.334 16.573L7.327 16.59C7.25582 16.7375 7.2189 16.8992 7.219 17.063V33.469H2.187V5.469C2.18779 4.59863 2.53397 3.76415 3.14951 3.1488C3.76505 2.53345 4.59963 2.18853 5.47 2.188ZM40.032 33.468V9.407H46.595V11.595H45.5C45.3536 11.5906 45.2078 11.6156 45.0713 11.6685C44.9348 11.7215 44.8102 11.8013 44.7051 11.9033C44.6 12.0053 44.5165 12.1273 44.4594 12.2622C44.4023 12.3971 44.3729 12.5421 44.3729 12.6885C44.3729 12.835 44.4023 12.9799 44.4594 13.1148C44.5165 13.2497 44.6 13.3717 44.7051 13.4737C44.8102 13.5757 44.9348 13.6555 45.0713 13.7085C45.2078 13.7614 45.3536 13.7864 45.5 13.782H46.594V17.063H45.5C45.3563 17.063 45.2141 17.0913 45.0813 17.1463C44.9486 17.2013 44.828 17.2818 44.7264 17.3834C44.6248 17.485 44.5443 17.6056 44.4893 17.7383C44.4343 17.8711 44.406 18.0133 44.406 18.157C44.406 18.3007 44.4343 18.4429 44.4893 18.5757C44.5443 18.7084 44.6248 18.829 44.7264 18.9306C44.828 19.0322 44.9486 19.1127 45.0813 19.1677C45.2141 19.2227 45.3563 19.251 45.5 19.251H46.594V22.532H45.5C45.2099 22.532 44.9316 22.6473 44.7264 22.8524C44.5213 23.0576 44.406 23.3359 44.406 23.626C44.406 23.9161 44.5213 24.1944 44.7264 24.3996C44.9316 24.6047 45.2099 24.72 45.5 24.72H46.594V29.095H45.5C45.3536 29.0906 45.2078 29.1156 45.0713 29.1685C44.9348 29.2215 44.8102 29.3013 44.7051 29.4033C44.6 29.5053 44.5165 29.6273 44.4594 29.7622C44.4023 29.8971 44.3729 30.042 44.3729 30.1885C44.3729 30.3349 44.4023 30.4799 44.4594 30.6148C44.5165 30.7497 44.6 30.8717 44.7051 30.9737C44.8102 31.0757 44.9348 31.1555 45.0713 31.2085C45.2078 31.2614 45.3536 31.2864 45.5 31.282H46.594V33.47H40.03L40.032 33.468ZM28.182 22.456C28.58 22.456 28.976 22.41 29.362 22.324C29.566 23.625 29.864 25.927 30.04 29.094H25.969C26.154 25.93 26.466 23.592 26.682 22.247C27.167 22.385 27.672 22.456 28.182 22.456ZM28.182 20.268C25.682 20.268 24.071 17.548 25.338 15.35L28.183 10.424L31.026 15.349C32.288 17.538 30.698 20.269 28.183 20.269L28.182 20.268ZM25.869 31.281H30.136C30.159 32 30.176 32.731 30.183 33.469H25.819C25.828 32.736 25.844 32.005 25.869 31.281ZM13.78 33.47V18.156H15.968V33.47H13.78ZM9.405 33.47V18.156H11.593V33.47H9.406H9.405ZM10.081 15.97L12.686 10.76L15.292 15.97H10.081ZM37.655 53.813H18.343C18.503 53.358 18.766 52.94 19.118 52.587C19.422 52.2814 19.7835 52.0391 20.1818 51.8742C20.58 51.7092 21.007 51.6249 21.438 51.626H34.563C35.989 51.626 37.205 52.54 37.656 53.814L37.655 53.813ZM31.28 49.439H24.72V44.407H31.282V49.439H31.28ZM50.53 42.219H5.47C4.60015 42.2182 3.76612 41.8724 3.15086 41.2576C2.53559 40.6427 2.18932 39.8088 2.188 38.939V35.657H53.814V38.939C53.8127 39.8088 53.4664 40.6427 52.8511 41.2576C52.2359 41.8724 51.4019 42.2182 50.532 42.219H50.53Z" fill="#198CDE" style="fill:#198CDE;fill:color(display-p3 0.0980 0.5490 0.8706);fill-opacity:1;"/>
<path d="M30.1881 37.8443H23.6251C23.4787 37.8398 23.333 37.8648 23.1964 37.9178C23.0599 37.9708 22.9354 38.0506 22.8303 38.1526C22.7251 38.2545 22.6416 38.3766 22.5845 38.5115C22.5274 38.6463 22.498 38.7913 22.498 38.9377C22.498 39.0842 22.5274 39.2292 22.5845 39.364C22.6416 39.4989 22.7251 39.6209 22.8303 39.7229C22.9354 39.8249 23.0599 39.9047 23.1964 39.9577C23.333 40.0107 23.4787 40.0357 23.6251 40.0312H30.1881C30.3345 40.0357 30.4803 40.0107 30.6168 39.9577C30.7534 39.9047 30.8779 39.8249 30.983 39.7229C31.0881 39.6209 31.1717 39.4989 31.2287 39.364C31.2858 39.2292 31.3152 39.0842 31.3152 38.9377C31.3152 38.7913 31.2858 38.6463 31.2287 38.5115C31.1717 38.3766 31.0881 38.2545 30.983 38.1526C30.8779 38.0506 30.7534 37.9708 30.6168 37.9178C30.4803 37.8648 30.3345 37.8398 30.1881 37.8443Z" fill="#198CDE" style="fill:#198CDE;fill:color(display-p3 0.0980 0.5490 0.8706);fill-opacity:1;"/>
</svg>

<svg xmlns="http://www.w3.org/2000/svg" width="56" height="56" viewBox="0 0 56 56">
    <g fill="#20A052" fill-rule="nonzero">
        <path d="M34.563 37.844a1.094 1.094 0 1 0 0 2.188 1.094 1.094 0 0 0 0-2.188z"/>
        <path d="M50.531 0H5.47A5.475 5.475 0 0 0 0 5.469v33.468a5.475 5.475 0 0 0 5.469 5.47H22.53v5.03h-1.093c-1.46 0-2.834.57-3.867 1.603a5.433 5.433 0 0 0-1.602 3.866c0 .604.49 1.094 1.094 1.094h21.875c.604 0 1.093-.49 1.093-1.094a5.475 5.475 0 0 0-5.468-5.468h-1.094v-5.032H50.53A5.475 5.475 0 0 0 56 38.938V5.468A5.475 5.475 0 0 0 50.531 0zM5.47 2.188H50.53a3.285 3.285 0 0 1 3.282 3.28v28H48.78V8.313c0-.604-.49-1.093-1.093-1.093h-8.75c-.605 0-1.094.49-1.094 1.093V33.47h-5.475a100.514 100.514 0 0 0-.088-3.328c-.191-4.455-.628-7.439-.854-8.751a5.47 5.47 0 0 0 1.493-7.134L29.129 7.69a1.094 1.094 0 0 0-1.895 0l-3.792 6.566c-1.3 2.256-.84 5.178 1.203 6.903-.236 1.308-.714 4.399-.922 8.98-.049 1.093-.08 2.209-.092 3.33h-5.475V17.062c0-.173-.04-.331-.108-.472l-.007-.017-4.375-8.75a1.094 1.094 0 0 0-1.957 0l-4.375 8.75-.007.017a1.087 1.087 0 0 0-.108.473v16.406H2.187v-28A3.285 3.285 0 0 1 5.47 2.187zm34.562 31.28V9.407h6.563v2.188H45.5a1.094 1.094 0 1 0 0 2.187h1.094v3.281H45.5a1.094 1.094 0 1 0 0 2.188h1.094v3.281H45.5a1.094 1.094 0 1 0 0 2.188h1.094v4.375H45.5a1.094 1.094 0 1 0 0 2.187h1.094v2.188H40.03zm-11.85-11.012c.398 0 .794-.046 1.18-.132.204 1.301.502 3.603.678 6.77h-4.071c.185-3.164.497-5.502.713-6.847.485.138.99.209 1.5.209zm0-2.188c-2.5 0-4.111-2.72-2.844-4.918l2.845-4.926 2.843 4.925c1.262 2.189-.328 4.92-2.843 4.92zm-2.313 11.013h4.267c.023.719.04 1.45.047 2.188h-4.364c.009-.733.025-1.464.05-2.188zM13.78 33.47V18.156h2.188V33.47H13.78zm-4.375 0V18.156h2.188V33.47H9.406zm.676-17.5l2.605-5.21 2.606 5.21h-5.21zm27.574 37.843H18.343c.16-.455.423-.873.775-1.226a3.26 3.26 0 0 1 2.32-.961h13.125c1.426 0 2.642.914 3.093 2.188zm-6.375-4.374H24.72v-5.032h6.562v5.032zm19.25-7.22H5.47a3.285 3.285 0 0 1-3.282-3.28v-3.282h51.626v3.282a3.285 3.285 0 0 1-3.282 3.28z"/>
        <path d="M30.188 37.844h-6.563a1.094 1.094 0 1 0 0 2.187h6.563a1.094 1.094 0 1 0 0-2.187z"/>
    </g>
</svg>
